X:621
M:C|
L:1/8
K:A Minor
a|AAe>d ~B>d e2|d<gB<g d<gB<G|Aae>d ~B<d e>a|g>eg>B A2 A>a|
^g|a2 e>a c<a e>^f|~g2 d>g B>g d>g|a2 e>a c>ae>a|g>eg>B A2 A>^g|
a2 e>a c>ae>^f|~g2 d>g B>gd>g|aae>a bbe>g|a>eg>B A/B/c/d/ e>a||

